X:1
T:Magnificat
T:Ton Royal
T:Maitrise de Notre Dame de Paris
T:Louis XIII
%%score 1 2 { 3 | 4 | 5 }
L:1/8
Q:1/4=112
M:3/4
K:G
V:1 treble nm="Voice" snm="Vo."
V:2 bass nm="Voice" snm="Vo."
V:3 treble nm="Organ" snm="Org."
V:4 bass 
V:5 bass 
V:1
"^Moderato" d2 c2 B2 | A4 z2 | A4 B2 | c2 B2 A2 | G2- G2 z2 | z6 | B6- | B2 d4 | c2 B2 A2- | %9
 A2- A4- | A4 z2 | B2 c2 B2 | A4 G2- | G2 z4 | [GBd]6- | [GBd]6 | [G-Bd]2 [G-ce]2 [GBd]2- | %17
 [GBd-]2 [FAd]4- | [FAd]4 z2 | [FAd]6- | [FAd-]6 | [G-Bd]2 [Gce]2 [Bd-]2 | [FAd]2- [FAd]2 [GB]2- | %23
 [GB]7/2 z/ z2 | B6- | B2 d4 | c2 B2 A2- | A2- A4- | A4 z2 | B2 c2 B2 | A4 G2- | G2 z4 | [GBd]6- | %33
 [GBd]6 | [G-Bd]2 [G-ce]2 [GBd]2- | [GBd-]2 [FAd]4- | [FAd]4 z2 | [FAd]6- | [FAd-]6 | %39
 [G-Bd]2 [Gce]2 [Bd-]2 | [FAd]2- [FAd]2 [GB]2- | [GB]7/2 z/ z2 | B6- | B2 d4 | c2 B2 A2- | %45
 A2- A4- | A4 z2 | B2 c2 B2 | A4 G2- | G2 z4 | [GBd]6- | [GBd]6 | [G-Bd]2 [G-ce]2 [GBd]2- | %53
 [GBd-]2 [FAd]4- | [FAd]4 z2 | [FAd]6- | [FAd-]6 | [G-Bd]2 [Gce]2 [Bd-]2 | [FAd]2- [FAd]2 [GB]2- | %59
 [GB]7/2 z/ z2 | B6- | B2 d4 | c2 B2 A2- | A2- A4- | A4 z2 | B2 c2 B2 | A4 G2- | G2 z4 | [GBd]6- | %69
 [GBd]6 | [G-Bd]2 [G-ce]2 [GBd]2- | [GBd-]2 [FAd]4- | [FAd]4 z2 | [FAd]6- | [FAd-]6 | %75
 [G-Bd]2 [Gce]2 [Bd-]2 | [FAd]2- [FAd]2 [GB]2- | [GB]7/2 z/ z2 | B6- | B2 d4 | c2 B2 A2- | %81
 A2- A4- | A4 z2 | B2 c2 B2 | A4 G2- | G2 z4 | [GBd]6- | [GBd]6 | [G-Bd]2 [G-ce]2 [GBd]2- | %89
 [GBd-]2 [FAd]4- | [FAd]4 z2 | [FAd]6- | [FAd-]6 | [G-Bd]2 [Gce]2 [Bd-]2 | [FAd]2- [FAd]2 [GB]2- | %95
 [GB]7/2 z/ z2 | B6- | B2 d4 | c2 B2 A2- | A2- A4- | A4 z2 | B2 c2 B2 | A4 G2- | G2 z4 | [GBd]6- | %105
 [GBd]6 | [G-Bd]2 [G-ce]2 [GBd]2- | [GBd-]2 [FAd]4- | [FAd]4 z2 | [FAd]6- | [FAd-]6 | %111
 [G-Bd]2 [Gce]2 [Bd-]2 | [FAd]2- [FAd]2 [GB]2- | [GB]7/2 z/ z2 | B6- | B2 d4 | c2 B2 A2- | %117
 A2- A4- | A4 z2 | B2 c2 B2 | A4 G2- | G2 z4 | [GBd]6- | [GBd]6 | [G-Bd]2 [G-ce]2 [GBd]2- | %125
 [GBd-]2 [FAd]4- | [FAd]4 z2 | [FAd]6- | [FAd-]6 | [G-Bd]2 [Gce]2 [Bd-]2 | [FAd]2- [FAd]2 [GB]2- | %131
 [GB]6- | [GB]2 z4 |] %133
V:2
 z6 | z6 | z6 | z6 | z6 | z6 | z6 | z6 | z6 | z6 | z6 | z6 | z6 | z6 | B,6- | B,6 | D2 C2 B,2- | %17
 B,2 A,4- | A,4 z2 | A,6- | A,6 | B,2 C2 B,2 | A,2- A,2 G,2- | G,7/2 z/ z2 | z6 | z6 | z6 | z6 | %28
 z6 | z6 | z6 | z6 | B,6- | B,6 | D2 C2 B,2- | B,2 A,4- | A,4 z2 | A,6- | A,6 | B,2 C2 B,2 | %40
 A,2- A,2 G,2- | G,7/2 z/ z2 | z6 | z6 | z6 | z6 | z6 | z6 | z6 | z6 | B,6- | B,6 | D2 C2 B,2- | %53
 B,2 A,4- | A,4 z2 | A,6- | A,6 | B,2 C2 B,2 | A,2- A,2 G,2- | G,7/2 z/ z2 | z6 | z6 | z6 | z6 | %64
 z6 | z6 | z6 | z6 | B,6- | B,6 | D2 C2 B,2- | B,2 A,4- | A,4 z2 | A,6- | A,6 | B,2 C2 B,2 | %76
 A,2- A,2 G,2- | G,7/2 z/ z2 | z6 | z6 | z6 | z6 | z6 | z6 | z6 | z6 | B,6- | B,6 | D2 C2 B,2- | %89
 B,2 A,4- | A,4 z2 | A,6- | A,6 | B,2 C2 B,2 | A,2- A,2 G,2- | G,7/2 z/ z2 | z6 | z6 | z6 | z6 | %100
 z6 | z6 | z6 | z6 | B,6- | B,6 | D2 C2 B,2- | B,2 A,4- | A,4 z2 | A,6- | A,6 | B,2 C2 B,2 | %112
 A,2- A,2 G,2- | G,7/2 z/ z2 | z6 | z6 | z6 | z6 | z6 | z6 | z6 | z6 | B,6- | B,6 | D2 C2 B,2- | %125
 B,2 A,4- | A,4 z2 | A,6- | A,6 | B,2 C2 B,2 | A,2- A,2 G,2- | G,6- | G,2 z4 |] %133
V:3
!mf! [Gd]2 [Ec]2 [D-B]2 | [DA]2- [DA]4- | [DA]4 [DB]2 | [Ec]2 [D-B]2 [DA]2 | [CG-]2 [B,G]4- | %5
 [B,G]4 z2 |!p! [GB]6- | [GB]2 [Gd]4 | [Ec]2 [D-B]2 [DA]2- | [DA]2- [DA]4- | [DA]6 | %11
 [DB]2 [Ec]2 [DB]2 | [DA]4 [B,G]2- | [B,G]4 z2 |!f! [Gd]6- | [Gd]6- | [Gd]2 e2 [Gd]2- | %17
 [Gd-]2 [Fd]4- | [Fd]6 | [Fd]6- | [Fd-]6 | [Gd]2 [Ae]2 [Gd-]2 | [Fd]2- [Fd]2 [GB]2- | %23
 [GB]7/2 z/ z2 |!p! [GB]6- | [GB]2 [Gd]4 | [Ec]2 [D-B]2 [DA]2- | [DA]2- [DA]4- | [DA]6 | %29
 [DB]2 [Ec]2 [DB]2 | [DA]4 [B,G]2- | [B,G]4 z2 |!f! [Gd]6- | [Gd]6- | [Gd]2 e2 [Gd]2- | %35
 [Gd-]2 [Fd]4- | [Fd]6 | [Fd]6- | [Fd-]6 | [Gd]2 [Ae]2 [Gd-]2 | [Fd]2- [Fd]2 [GB]2- | %41
 [GB]7/2 z/ z2 |!p! [GB]6- | [GB]2 [Gd]4 | [Ec]2 [D-B]2 [DA]2- | [DA]2- [DA]4- | [DA]6 | %47
 [DB]2 [Ec]2 [DB]2 | [DA]4 [B,G]2- | [B,G]4 z2 |!f! [Gd]6- | [Gd]6- | [Gd]2 e2 [Gd]2- | %53
 [Gd-]2 [Fd]4- | [Fd]6 | [Fd]6- | [Fd-]6 | [Gd]2 [Ae]2 [Gd-]2 | [Fd]2- [Fd]2 [GB]2- | %59
 [GB]7/2 z/ z2 |!p! [GB]6- | [GB]2 [Gd]4 | [Ec]2 [D-B]2 [DA]2- | [DA]2- [DA]4- | [DA]6 | %65
 [DB]2 [Ec]2 [DB]2 | [DA]4 [B,G]2- | [B,G]4 z2 |!f! [Gd]6- | [Gd]6- | [Gd]2 e2 [Gd]2- | %71
 [Gd-]2 [Fd]4- | [Fd]6 | [Fd]6- | [Fd-]6 | [Gd]2 [Ae]2 [Gd-]2 | [Fd]2- [Fd]2 [GB]2- | %77
 [GB]7/2 z/ z2 |!p! [GB]6- | [GB]2 [Gd]4 | [Ec]2 [D-B]2 [DA]2- | [DA]2- [DA]4- | [DA]6 | %83
 [DB]2 [Ec]2 [DB]2 | [DA]4 [B,G]2- | [B,G]4 z2 |!f! [Gd]6- | [Gd]6- | [Gd]2 e2 [Gd]2- | %89
 [Gd-]2 [Fd]4- | [Fd]6 | [Fd]6- | [Fd-]6 | [Gd]2 [Ae]2 [Gd-]2 | [Fd]2- [Fd]2 [GB]2- | %95
 [GB]7/2 z/ z2 |!p! [GB]6- | [GB]2 [Gd]4 | [Ec]2 [D-B]2 [DA]2- | [DA]2- [DA]4- | [DA]6 | %101
 [DB]2 [Ec]2 [DB]2 | [DA]4 [B,G]2- | [B,G]4 z2 |!f! [Gd]6- | [Gd]6- | [Gd]2 e2 [Gd]2- | %107
 [Gd-]2 [Fd]4- | [Fd]6 | [Fd]6- | [Fd-]6 | [Gd]2 [Ae]2 [Gd-]2 | [Fd]2- [Fd]2 [GB]2- | %113
 [GB]7/2 z/ z2 |!p! [GB]6- | [GB]2 [Gd]4 | [Ec]2 [D-B]2 [DA]2- | [DA]2- [DA]4- | [DA]6 | %119
 [DB]2 [Ec]2 [DB]2 | [DA]4 [B,G]2- | [B,G]4 z2 |!f! [Gd]6- | [Gd]6- | [Gd]2 e2 [Gd]2- | %125
 [Gd-]2 [Fd]4- | [Fd]6 | [Fd]6- | [Fd-]6 | [Gd]2 [Ae]2 [Gd-]2 |!ff! [Fd]2- [Fd]2 [GB]2- | [GB]6- | %132
 [GB]2 z4 |] %133
V:4
 [B,,G,-]2 [C,G,-]4 | [D,-G,]2 [D,F,]4- | [D,-F,]4 [D,G,]2 | C,2 D,2 F,2 | G,2- [G,,G,]4- | %5
 [G,,G,]4 z2 | [G,D]6- | [G,D]2 [B,,G,-]4 | [C,G,]2 [D,F,]4- | [D,-F,]4 [D,G,]2- | [D,-G,]6 | %11
 [D,,D,]2 [C,,C,]2 [D,,D,]2 | [D,F,]4 [G,,G,]2- | [G,,G,]4 z2 | [G,B,]6- | [G,B,]6 | %16
 [B,,D]2 [C,C]2 [D,B,]2- | [D,-B,]2 [D,A,]4- | [D,A,]6 | [D,A,]6- | [D,A,]6 | %21
 [G,B,]2 [C,C]2 [D,-B,]2 | [D,A,]2- [D,A,]2 [G,,G,]2- | [G,,G,]7/2 z/ z2 | [G,D]6- | %25
 [G,D]2 [B,,G,-]4 | [C,G,]2 [D,F,]4- | [D,-F,]4 [D,G,]2- | [D,-G,]6 | [D,,D,]2 [C,,C,]2 [D,,D,]2 | %30
 [D,F,]4 [G,,G,]2- | [G,,G,]4 z2 | [G,B,]6- | [G,B,]6 | [B,,D]2 [C,C]2 [D,B,]2- | %35
 [D,-B,]2 [D,A,]4- | [D,A,]6 | [D,A,]6- | [D,A,]6 | [G,B,]2 [C,C]2 [D,-B,]2 | %40
 [D,A,]2- [D,A,]2 [G,,G,]2- | [G,,G,]7/2 z/ z2 | [G,D]6- | [G,D]2 [B,,G,-]4 | [C,G,]2 [D,F,]4- | %45
 [D,-F,]4 [D,G,]2- | [D,-G,]6 | [D,,D,]2 [C,,C,]2 [D,,D,]2 | [D,F,]4 [G,,G,]2- | [G,,G,]4 z2 | %50
 [G,B,]6- | [G,B,]6 | [B,,D]2 [C,C]2 [D,B,]2- | [D,-B,]2 [D,A,]4- | [D,A,]6 | [D,A,]6- | [D,A,]6 | %57
 [G,B,]2 [C,C]2 [D,-B,]2 | [D,A,]2- [D,A,]2 [G,,G,]2- | [G,,G,]7/2 z/ z2 | [G,D]6- | %61
 [G,D]2 [B,,G,-]4 | [C,G,]2 [D,F,]4- | [D,-F,]4 [D,G,]2- | [D,-G,]6 | [D,,D,]2 [C,,C,]2 [D,,D,]2 | %66
 [D,F,]4 [G,,G,]2- | [G,,G,]4 z2 | [G,B,]6- | [G,B,]6 | [B,,D]2 [C,C]2 [D,B,]2- | %71
 [D,-B,]2 [D,A,]4- | [D,A,]6 | [D,A,]6- | [D,A,]6 | [G,B,]2 [C,C]2 [D,-B,]2 | %76
 [D,A,]2- [D,A,]2 [G,,G,]2- | [G,,G,]7/2 z/ z2 | [G,D]6- | [G,D]2 [B,,G,-]4 | [C,G,]2 [D,F,]4- | %81
 [D,-F,]4 [D,G,]2- | [D,-G,]6 | [D,,D,]2 [C,,C,]2 [D,,D,]2 | [D,F,]4 [G,,G,]2- | [G,,G,]4 z2 | %86
 [G,B,]6- | [G,B,]6 | [B,,D]2 [C,C]2 [D,B,]2- | [D,-B,]2 [D,A,]4- | [D,A,]6 | [D,A,]6- | [D,A,]6 | %93
 [G,B,]2 [C,C]2 [D,-B,]2 | [D,A,]2- [D,A,]2 [G,,G,]2- | [G,,G,]7/2 z/ z2 | [G,D]6- | %97
 [G,D]2 [B,,G,-]4 | [C,G,]2 [D,F,]4- | [D,-F,]4 [D,G,]2- | [D,-G,]6 | [D,,D,]2 [C,,C,]2 [D,,D,]2 | %102
 [D,F,]4 [G,,G,]2- | [G,,G,]4 z2 | [G,B,]6- | [G,B,]6 | [B,,D]2 [C,C]2 [D,B,]2- | %107
 [D,-B,]2 [D,A,]4- | [D,A,]6 | [D,A,]6- | [D,A,]6 | [G,B,]2 [C,C]2 [D,-B,]2 | %112
 [D,A,]2- [D,A,]2 [G,,G,]2- | [G,,G,]7/2 z/ z2 | [G,D]6- | [G,D]2 [B,,G,-]4 | [C,G,]2 [D,F,]4- | %117
 [D,-F,]4 [D,G,]2- | [D,-G,]6 | [D,,D,]2 [C,,C,]2 [D,,D,]2 | [D,F,]4 [G,,G,]2- | [G,,G,]4 z2 | %122
 [G,B,]6- | [G,B,]6 | [B,,D]2 [C,C]2 [D,B,]2- | [D,-B,]2 [D,A,]4- | [D,A,]6 | [D,A,]6- | [D,A,]6 | %129
 [G,B,]2 [C,C]2 [D,-B,]2 | [D,A,]2- [D,A,]2 [G,,G,]2- | [G,,G,]6- | [G,,G,]2 z4 |] %133
V:5
 [G,,-B,,G,-]2 [G,,-C,G,-]4 | [G,,D,-G,]2 [F,,D,F,]4- | [F,,D,-F,]4 [G,,D,G,]2 | %3
 [C,,C,C]2 [D,,D,]2 [C,,F,,F,]2 | [D,,G,,G,]2- [D,,G,,G,]4- | [D,,G,,G,]4 z2 | [G,,G,D]6- | %7
 [G,,-G,D]2 [G,,-B,,G,-]4 | [G,,C,G,]2 [F,,D,F,]4- | [F,,D,-F,]4 [G,,D,G,]2- | [G,,D,-G,]6 | %11
 [D,,D,]2 [C,,C,]2 [D,,D,]2 | [D,F,]4 [G,,G,]2- | [G,,G,]4 z2 | [B,,G,B,]6- | [B,,-G,B,]6 | %16
 [B,,D]2 [C,C]2 [D,B,]2- | [D,-B,]2 [D,A,]4- | [D,A,]6 | [A,,D,A,]6- | [A,,D,A,]6 | %21
 [G,,G,B,]2 [C,C]2 [D,-B,]2 | [D,A,]2- [D,A,]2 [G,,G,]2- | [G,,G,]7/2 z/ z2 | [G,,G,D]6- | %25
 [G,,-G,D]2 [G,,-B,,G,-]4 | [G,,C,G,]2 [F,,D,F,]4- | [F,,D,-F,]4 [G,,D,G,]2- | [G,,D,-G,]6 | %29
 [D,,D,]2 [C,,C,]2 [D,,D,]2 | [D,F,]4 [G,,G,]2- | [G,,G,]4 z2 | [B,,G,B,]6- | [B,,-G,B,]6 | %34
 [B,,D]2 [C,C]2 [D,B,]2- | [D,-B,]2 [D,A,]4- | [D,A,]6 | [A,,D,A,]6- | [A,,D,A,]6 | %39
 [G,,G,B,]2 [C,C]2 [D,-B,]2 | [D,A,]2- [D,A,]2 [G,,G,]2- | [G,,G,]7/2 z/ z2 | [G,,G,D]6- | %43
 [G,,-G,D]2 [G,,-B,,G,-]4 | [G,,C,G,]2 [F,,D,F,]4- | [F,,D,-F,]4 [G,,D,G,]2- | [G,,D,-G,]6 | %47
 [D,,D,]2 [C,,C,]2 [D,,D,]2 | [D,F,]4 [G,,G,]2- | [G,,G,]4 z2 | [B,,G,B,]6- | [B,,-G,B,]6 | %52
 [B,,D]2 [C,C]2 [D,B,]2- | [D,-B,]2 [D,A,]4- | [D,A,]6 | [A,,D,A,]6- | [A,,D,A,]6 | %57
 [G,,G,B,]2 [C,C]2 [D,-B,]2 | [D,A,]2- [D,A,]2 [G,,G,]2- | [G,,G,]7/2 z/ z2 | [G,,G,D]6- | %61
 [G,,-G,D]2 [G,,-B,,G,-]4 | [G,,C,G,]2 [F,,D,F,]4- | [F,,D,-F,]4 [G,,D,G,]2- | [G,,D,-G,]6 | %65
 [D,,D,]2 [C,,C,]2 [D,,D,]2 | [D,F,]4 [G,,G,]2- | [G,,G,]4 z2 | [B,,G,B,]6- | [B,,-G,B,]6 | %70
 [B,,D]2 [C,C]2 [D,B,]2- | [D,-B,]2 [D,A,]4- | [D,A,]6 | [A,,D,A,]6- | [A,,D,A,]6 | %75
 [G,,G,B,]2 [C,C]2 [D,-B,]2 | [D,A,]2- [D,A,]2 [G,,G,]2- | [G,,G,]7/2 z/ z2 | [G,,G,D]6- | %79
 [G,,-G,D]2 [G,,-B,,G,-]4 | [G,,C,G,]2 [F,,D,F,]4- | [F,,D,-F,]4 [G,,D,G,]2- | [G,,D,-G,]6 | %83
 [D,,D,]2 [C,,C,]2 [D,,D,]2 | [D,F,]4 [G,,G,]2- | [G,,G,]4 z2 | [B,,G,B,]6- | [B,,-G,B,]6 | %88
 [B,,D]2 [C,C]2 [D,B,]2- | [D,-B,]2 [D,A,]4- | [D,A,]6 | [A,,D,A,]6- | [A,,D,A,]6 | %93
 [G,,G,B,]2 [C,C]2 [D,-B,]2 | [D,A,]2- [D,A,]2 [G,,G,]2- | [G,,G,]7/2 z/ z2 | [G,,G,D]6- | %97
 [G,,-G,D]2 [G,,-B,,G,-]4 | [G,,C,G,]2 [F,,D,F,]4- | [F,,D,-F,]4 [G,,D,G,]2- | [G,,D,-G,]6 | %101
 [D,,D,]2 [C,,C,]2 [D,,D,]2 | [D,F,]4 [G,,G,]2- | [G,,G,]4 z2 | [B,,G,B,]6- | [B,,-G,B,]6 | %106
 [B,,D]2 [C,C]2 [D,B,]2- | [D,-B,]2 [D,A,]4- | [D,A,]6 | [A,,D,A,]6- | [A,,D,A,]6 | %111
 [G,,G,B,]2 [C,C]2 [D,-B,]2 | [D,A,]2- [D,A,]2 [G,,G,]2- | [G,,G,]7/2 z/ z2 | [G,,G,D]6- | %115
 [G,,-G,D]2 [G,,-B,,G,-]4 | [G,,C,G,]2 [F,,D,F,]4- | [F,,D,-F,]4 [G,,D,G,]2- | [G,,D,-G,]6 | %119
 [D,,D,]2 [C,,C,]2 [D,,D,]2 | [D,F,]4 [G,,G,]2- | [G,,G,]4 z2 | [B,,G,B,]6- | [B,,-G,B,]6 | %124
 [B,,D]2 [C,C]2 [D,B,]2- | [D,-B,]2 [D,A,]4- | [D,A,]6 | [A,,D,A,]6- | [A,,D,A,]6 | %129
 [G,,G,B,]2 [C,C]2 [D,-B,]2 | [D,A,]2- [D,A,]2 [G,,G,]2- | [G,,G,]6- | [G,,G,]2 z4 |] %133

